SVG_Azure_Grouped/Networking/Bastion.svg

<?xml version="1.0" encoding="UTF-8" standalone="no"?>
<!-- Generated by Microsoft Visio, SVG Export Bastion.svg Page-1 -->

<svg
   xmlns:dc="http://purl.org/dc/elements/1.1/"
   xmlns:cc="http://creativecommons.org/ns#"
   xmlns:rdf="http://www.w3.org/1999/02/22-rdf-syntax-ns#"
   xmlns:svg="http://www.w3.org/2000/svg"
   xmlns="http://www.w3.org/2000/svg"
   xmlns:sodipodi="http://sodipodi.sourceforge.net/DTD/sodipodi-0.dtd"
   xmlns:inkscape="http://www.inkscape.org/namespaces/inkscape"
   width="0.77736056in"
   height="0.77203637in"
   viewBox="0 0 55.970019 55.586554"
   xml:space="preserve"
   class="st2"
   version="1.1"
   id="svg19"
   sodipodi:docname="Bastion.svg"
   style="font-size:12px;overflow:visible;color-interpolation-filters:sRGB;fill:none;fill-rule:evenodd;stroke-linecap:square;stroke-miterlimit:3"
   inkscape:version="0.92.5 (2060ec1f9f, 2020-04-08)"><metadata
   id="metadata25"><rdf:RDF><cc:Work
       rdf:about=""><dc:format>image/svg+xml</dc:format><dc:type
         rdf:resource="http://purl.org/dc/dcmitype/StillImage" /></cc:Work></rdf:RDF></metadata><defs
   id="defs23" /><sodipodi:namedview
   pagecolor="#ffffff"
   bordercolor="#666666"
   borderopacity="1"
   objecttolerance="10"
   gridtolerance="10"
   guidetolerance="10"
   inkscape:pageopacity="0"
   inkscape:pageshadow="2"
   inkscape:window-width="640"
   inkscape:window-height="480"
   id="namedview21"
   showgrid="false"
   inkscape:zoom="1.73066"
   inkscape:cx="37.31424"
   inkscape:cy="22.2533"
   inkscape:window-x="0"
   inkscape:window-y="0"
   inkscape:window-maximized="0"
   inkscape:current-layer="svg19" />
	<style
   type="text/css"
   id="style2">
	<![CDATA[
		.st1 {fill:#0072c6;stroke:none;stroke-linecap:butt;stroke-width:12.24}
		.st2 {fill:none;fill-rule:evenodd;font-size:12px;overflow:visible;stroke-linecap:square;stroke-miterlimit:3}
	]]>
	</style>

	<g
   id="g17"
   transform="translate(-12.241091,-12.239928)">
		<title
   id="title4">Page-1</title>
		<g
   id="group18138-1"
   transform="translate(12.0002,-34.0157)">
			<title
   id="title6">Bastion.18138</title>
			<g
   id="group18139-2">
				<title
   id="title8">Sheet.18139</title>
				<g
   id="shape18140-3">
					<title
   id="title10">Sheet.18140</title>
					<path
   d="m 25.13,87.71 c -7.32,5 -19.04,12.67 -20.17,13.56 -1.47,1 -3.61,0.56 -4.28,-0.33 C 0,99.94 0,97.83 1.47,96.83 2.37,96.27 17.81,85.93 22.54,82.71 l 2.71,2.89 c 1.24,1.22 -0.12,2.11 -0.12,2.11 z m -0.33,-7 c 0,0 -13.53,-14.34 -15.11,-15.9 -1.46,-1.67 -0.11,-3.56 0.68,-4.22 0.79,-0.67 3.16,-1.67 4.39,-0.45 1.24,1.23 16.35,17.23 17.47,18.46 1.13,1.22 1.02,3.11 -0.9,4.44 -0.33,0.22 -1.24,0.89 -2.59,1.78 -0.11,0.11 -0.68,0.56 -1.24,0.89 0,0 1.24,-0.89 0.34,-1.89 z m 9.69,-9.45 c 6.09,6.45 15.55,16.56 16.57,17.56 1.24,1.34 3.38,1.34 4.28,0.56 0.9,-0.78 1.35,-2.78 0.11,-4.11 C 54.78,84.49 42.04,71.04 38.21,66.92 l -3.27,2.23 c -1.58,0.89 -0.45,2.11 -0.45,2.11 z m 1.35,-6.56 c 0,0 16.34,-11.23 18.15,-12.56 1.8,-1.33 0.9,-3.45 0.22,-4.23 -0.67,-0.77 -2.7,-2.33 -4.17,-1.33 -1.46,1 -19.61,13.45 -20.96,14.45 -1.35,1 -1.69,2.78 0,4.56 0.22,0.33 1.01,1.11 2.14,2.33 0.11,0.12 0.56,0.67 1.01,1.12 0,0 -1.01,-1.12 0.12,-1.89 z"
   class="st1"
   id="path12"
   inkscape:connector-curvature="0"
   style="fill:#0072c6;stroke:none;stroke-width:12.23999977;stroke-linecap:butt" />
				</g>
			</g>
		</g>
	</g>
</svg>

<?xml version="1.0" encoding="UTF-8" standalone="no"?>
<!DOCTYPE svg PUBLIC "-//W3C//DTD SVG 1.1//EN" "http://www.w3.org/Graphics/SVG/1.1/DTD/svg11.dtd">
<!-- Generated by Microsoft Visio, SVG Export Bastion.svg Page-1 -->
<svg xmlns="http://www.w3.org/2000/svg" xmlns:xlink="http://www.w3.org/1999/xlink" xmlns:ev="http://www.w3.org/2001/xml-events"
		width="1.11741in" height="1.42046in" viewBox="0 0 80.4536 102.273" xml:space="preserve" color-interpolation-filters="sRGB"
		class="st2">
	<style type="text/css">
	<![CDATA[
		.st1 {fill:#0072c6;stroke:none;stroke-linecap:butt;stroke-width:12.24}
		.st2 {fill:none;fill-rule:evenodd;font-size:12px;overflow:visible;stroke-linecap:square;stroke-miterlimit:3}
	]]>
	</style>

	<g>
		<title>Page-1</title>
		<g id="group17724-1" transform="translate(12.0002,-34.0157)">
			<title>Bastion.17724</title>
			<g id="group17725-2">
				<title>Sheet.17725</title>
				<g id="shape17726-3">
					<title>Sheet.17726</title>
					<path d="M25.13 87.71 C17.81 92.71 6.09 100.38 4.96 101.27 C3.49 102.27 1.35 101.83 0.68 100.94 C0 99.94 0 97.83
								 1.47 96.83 C2.37 96.27 17.81 85.93 22.54 82.71 L25.25 85.6 C26.49 86.82 25.13 87.71 25.13 87.71
								 ZM24.8 80.71 C24.8 80.71 11.27 66.37 9.69 64.81 C8.23 63.14 9.58 61.25 10.37 60.59 C11.16 59.92
								 13.53 58.92 14.76 60.14 C16 61.37 31.11 77.37 32.23 78.6 C33.36 79.82 33.25 81.71 31.33 83.04 C31
								 83.26 30.09 83.93 28.74 84.82 C28.63 84.93 28.06 85.38 27.5 85.71 C27.5 85.71 28.74 84.82 27.84
								 83.82 L24.8 80.71 ZM34.49 71.26 C40.58 77.71 50.04 87.82 51.06 88.82 C52.3 90.16 54.44 90.16 55.34
								 89.38 C56.24 88.6 56.69 86.6 55.45 85.27 C54.78 84.49 42.04 71.04 38.21 66.92 L34.94 69.15 C33.36
								 70.04 34.49 71.26 34.49 71.26 ZM35.84 64.7 C35.84 64.7 52.18 53.47 53.99 52.14 C55.79 50.81 54.89
								 48.69 54.21 47.91 C53.54 47.14 51.51 45.58 50.04 46.58 C48.58 47.58 30.43 60.03 29.08 61.03 C27.73
								 62.03 27.39 63.81 29.08 65.59 C29.3 65.92 30.09 66.7 31.22 67.92 C31.33 68.04 31.78 68.59 32.23
								 69.04 C32.23 69.04 31.22 67.92 32.35 67.15 L35.84 64.7 Z" class="st1"/>
				</g>
			</g>
		</g>
	</g>
</svg>
